X:1
T:Title
%%score ( 1 2 ) ( 3 4 )
L:1/8
Q:1/4=120
M:4/4
K:G
V:1 treble nm="MusicXML Part"
V:2 treble 
V:3 bass nm="MusicXML Part"
V:4 bass 
V:1
"^Harewood""^Christ is our Cornerstone""^Latin, before 9th century\ntr. J. Chandler (1806-76)" D2 | %1
 E2 F2 G2 A2 | (G2 F2) d4 | cB AG B2 A2 |"^S. S. Wesley\n(1810-76)" G6 || A2 | B2 d2 B2 A2 | %7
 G4 B4 | A2 G2 F2 E2 | D6 || D2 | E2 F2 G2 A2 | B2 c2 A2 d2 | d2 c2 B2 AE | G2 F2 G4 |] %15
V:2
 D2 | D2 D2 B,2 E2 | D4 D4 | ED CB, D2 DC | B,6 || D2 | D2 D2 D2 D2 | B,4 ^C4 | D2 E2 D2 ^C2 | %9
w: Christ|is our cor- ner-|stone, on|him * a­ * lone we *|build;|with|his true saints a-|lone the|courts of heaven are|
w: O|then with hymns of|praise these|hal­ * lowed * courts shall *|ring;|our|voi- ces we will|raise the|Three in One to|
w: Here,|grac- ious God, do|thou for|e­ * ver * more draw *|nigh;|ac-|cept each faith- ful|vow, and|mark each sup- pliant|
w: Here|may we gain from|heaven the|grace * which * we im­ *|plore;|and|may that grace, once|given, be|with us e- ver-|
 D6 || D2 | D2 C2 B,2 D2 | D2 E2 D2 F2 | E2 FE ^D2 E2 | D2 DC B,4 |] %15
w: filled:|on|his great love our|hopes we place of|pre- sent * grace and |joys a­ * bove.|
w: sing;|and|thus pro- claim in|joy- ful song, both|loud and * long, that |glo- rious * name.|
w: sigh;|in|cop- ious shower on|all who pray each|ho- ly * day thy |bles- sings * pour.|
w: more,|un-|til that day when|all the blest to|end- less * rest are |called a­ * way.|
V:3
 B,2 | B,2 A,2 B,2 C2 | (B,2 A,2) G,4 | G,2 G,2 G,2 F,2 | G,6 || F,2 | G,2 A,2 G,2 F,2 | G,4 G,4 | %8
 A,2 B,2 A,2 G,2 | F,6 || G,2 | G,2 F,2 E,2 A,2 | G,2 G,2 F,2 F,2 | B,2 C2 F,2 A,2 | B,2 A,2 G,4 |] %15
V:4
 G,2 | G,2 F,2 E,2 A,,2 | D,4 B,,4 | C,2 E,2 D,2 D,2 | G,,6 || D,2 | G,2 F,2 G,2 D,2 | E,4 E,4 | %8
 F,2 G,2 A,2 A,,2 | D,6 || B,,2 | C,2 A,,2 E,2 F,2 | G,2 C,2 D,2 B,,2 | G,,2 A,,2 B,,2 C,2 | %14
 D,2 D,2 G,,4 |] %15

